images/tiles/t13.svg

<svg 
    xmlns="http://www.w3.org/2000/svg"
    width="1200" 
    height="1200">
    <g id="group">
        <path d="M0,1200v-400h400c0-250,400-250,400,0h400v400h-400v-400h-400v400h-400ZM0,0h400.00006c-.00002,0-.00004.00001-.00006.00001c0,106.41777,56.62372,212.83554,199.99999,289.12447C473.917,356.21184,280.74666,400,0,400L0,0ZM1200,0v400c-280.74666,0-473.917-43.78816-599.99999-110.87552C743.37628,212.83556,800,106.41778,800,0.00001L799.99993,0L1200,0Z" fill="#dee1e6" stroke-width="0"/>
        <path d="M0,400C600,400,800,199.999999,800,0.000005" fill="none" stroke="#292F33" stroke-width="30"/>
        <path d="M400,0.000005C400,199.999999,600,400,1200,400" fill="none" stroke="#292F33" stroke-width="30"/>
        <path d="M0.000003,800L1200,800" fill="none" stroke="#292F33" stroke-width="30"/>
        <path d="M400,1200c0-186.043131,0-300,0-400c0-250,400-250,400,0c0,100,0,200.933141,0,400" fill="none" stroke="#292F33" stroke-width="30"/>
    </g>
</svg>

<svg xmlns="http://www.w3.org/2000/svg" width="1200" height="1200">
  <style>
    .fillColor {
      fill: #dee1e6;
    }
    .strokeColor {
      stroke: #292F33;
      stroke-width: 30;
    }
  </style>
  <g id="group">
    <path class="fillColor" style="stroke-width:0;" d="M0 1200V800h400c0-250 400-250 400 0h400v400H800V800H400v400H0zM0 0h400c0 106.4 56.6 212.8 200 289.1C474 356.2 280.7 400 0 400V0zm1200 0v400c-280.7 0-474-43.8-600-110.9 143.4-76.3 200-182.7 200-289V0h400z"/>
    <path class="strokeColor" style="fill:none;" d="M0 400c600 0 800-200 800-400M400 0c0 200 200 400 800 400M0 800h1200M400 1200V800c0-250 400-250 400 0v400"/>
  </g>
</svg>
